X: 0
T: Avokatrilli
O: Finland
F: http://www.youtube.com/watch?v=ti25VV9nJ8Y
F: http://www.youtube.com/watch?v=tCswsPXjSi0
R: polka
Z: 2012 John Chambers <jc:trillian.mit.edu>
M: 2/4
L: 1/8
K: Am
% - - - - - - - - - - - - - - - - - - - - - - - - -
P: Avokatrilli   [Am]
[|\
"Am"AB cd | e2 e2 | "Dm"fe fa | "Am"ez e2 |\
"Dm"dd zd | "Am"cc zc | "E7"ed cB | "Am"A2 A2 ||
||\
"C"e2 e2 | gg ze | "G7"gf ed | "C"e2 e2 |\
"Dm"fa zf | "Am"ea ze | "E7"ed cB | "Am"A2 A2 |]
% - - - - - - - - - - - - - - - - - - - - - - - - -
P: Avokatrilli   [Dm]
K: Dm
[|\
"Dm"DE FG | A2 A2 | "Gm"BA Bd | "Dm"Az A2 |\
"Gm"GG zG | "Dm"FF zF | "A7"AG FE | "Dm"D2 D2 ||
||\
"F"A2 A2 | cc zA | "C7"cB AG | "F"A2 A2 |\
"Gm"Bd zB | "Dm"Ad zA | "A7"AG FE | "Dm"D2 D2 |]

%%sep 1 1 500

